X:1
T:Old 50th, 10.10.10 D
T:Old 50th, 10.10.10 D
T:Psalmes, Sternhold & Hopkins, 1562
T:Public Domain Courtesy of the Cyber Hymnal™
C:Psalmes, Sternhold & Hopkins, 1562
Z:Public Domain
Z:Courtesy of the Cyber Hymnal™
%%score ( 1 2 ) ( 3 4 )
L:1/8
Q:1/4=117
M:none
K:F
V:1 treble 
V:2 treble 
V:3 bass 
V:4 bass 
V:1
 [Fd]4 [Fc]2 [FB]2 | [FA]4 [Fc]4 | d2 z [DB]2 [^FA]2 x | G8 | [DG]4 [Fd]2 [Fd]2 | [Ec]4 [Gd]4 | %6
 [Ge]2 [Af]2 e2 [Ee]2 | [^Fd]8 | [Gd]4 [Fd]2 [Gd]2 | [Ac]4 [FA]4 | [GB]2 d2 [^Fc]2 [GB]2 | [^FA]8 | %12
 [Gd]4 [Fd]2 [Fd]2 | [Fd]2 [Ec]2 [FA]2 [Dc]2 | [DB]2 d2 z [DB]2 x | [FA]8 | [Gc]4 [GB]2 [FA]2 x | %17
 G4 [DF]4 | [DG]2 [FA]2 [GB]2 [Gc]2 | [^Fd]4 [FA]4 | [GB]4 [Gc]4 | [Fd]4 [Af]4 | %22
 [G_e]2 [Gd]2 cB [^FA]2 | G8 |] %24
V:2
 x8 | x8 | ^F3 (c2 _E) x2 | G8 | x8 | x8 | x4 AG x2 | x8 | x8 | x8 | x2 DE x4 | x8 | x8 | x8 | %14
 x2 F3 (c2 _E) | x8 | x9 | F2 _E2 x4 | x8 | x8 | x8 | x8 | x4 G2 x2 | G8 |] %24
V:3
 A,3 B, [A,,C]2 [B,,D]2 | [F,C]4 [F,A,]4 | [B,,B,]2 [C,G,]2 [D,G,]2 [D,D]2 | [G,B,]8 | %4
 [G,B,]4 [D,A,]2 [D,A,]2 | [A,C]4 [G,=B,]4 | C2 z D [A,D]2 [A,^C]2 | [D,D]8 | %8
 [G,B,]3 [A,C] [B,D]2 [B,D]2 | [A,E]4 D4 | [G,D]2 B,2 [A,C]2 [G,D]2 | [D,D]8 | %12
 [G,,B,]4 [D,A,]2 [D,A,]2 | [B,,B,]2 [C,G,]2 [D,F,]2 [D,F,]2 | F,2 B,2 [A,,C]2 [B,,D]2 | [F,C]8 | %16
 [C,_E]4 D3 z C | [_E,B,]4 [B,,B,]4 | [G,B,]2 [F,C]2 [_E,G,]2 [E,G,]2 | [D,A,]4 [D,D]4 | %20
 [G,D]4 G,3 A, | [B,,B,]4 [F,,C]4 | [C,C]2 [B,,D]2 [C,_E]2 [D,A,]2 | [G,B,]8 |] %24
V:4
 D,4 x4 | x8 | x8 | x8 | x8 | x8 | ^C2 F,2 x4 | x8 | x8 | x4 D4 | x2 B,2 x4 | x8 | x8 | x8 | %14
 B,,4 x4 | x8 | x4 D,2 D,2 x | x8 | x8 | x8 | x4 _E,4 | x8 | x8 | x8 |] %24

